Origami/32x32/apps/rocket-league.svg

<svg width="32" height="32" version="1" xmlns="http://www.w3.org/2000/svg">
 <path d="m16.154702 3.000013c-1.468127 0.00116-2.941423 0.086619-4.321441 0.2734375-2.0425836 0.2765152-3.941041 0.7540557-5.661637 1.4941406-1.9668197 0.8132673-3.3850305 1.9693468-3.8701524 3.2109375-0.2775266 0.7278846-0.2049259 0.7332803-0.2227144 0.8496094-0.0177887 0.1163291-0.0248065 0.182239-0.0312582 0.2441406-0.071648 0.5425828-0.044546 1.0776634-0.031258 1.5917964 0.9621711 5.172348 3.0961726 11.187393 5.9800789 14.792969 0.864279 1.040804 1.5278953 1.7313 2.6921103 2.644531 1.141785 0.895643 2.265823 1.586304 3.670882 2.263672 0.151896 0.07323 0.290558 0.139053 0.412217 0.195313 0.06083 0.02813 0.113625 0.05244 0.185595 0.08398 0.03599 0.01577 0.0721 0.03158 0.154338 0.06445 0.04112 0.01643 0.08931 0.03671 0.205131 0.07617 0.05791 0.01973 0.128514 0.04385 0.273509 0.08203 0.0725 0.01909 0.306435 0.06831 0.306721 0.06836 2.86e-4 5.2e-5 0.714851 0.06445 0.715031 0.06445 8.87e-4 0 0.729709-0.06294 0.890858-0.09961s0.253364-0.06607 0.32821-0.08984c0.149692-0.04755 0.219928-0.07606 0.279371-0.09961 0.118883-0.0471 0.175248-0.07459 0.230528-0.09961 0.110561-0.05004 0.194046-0.08927 0.287185-0.134766 0.186278-0.091 0.395061-0.195487 0.615395-0.308593 1.494301-0.64857 2.821438-1.796415 4.028397-2.695347 0.316169-0.279431 0.550928-0.520637 0.900626-0.876953l0.0059-0.0059c4.1983718-4.295653 6.0466058-9.899773 6.7869298-15.925781 0.130619-1.0381285-0.138651-2.1422105-0.285272-2.6854614-0.421871-1.3054118-1.355103-1.8533068-2.377572-2.4726562-0.459377-0.2580905-0.953071-0.5062229-1.492578-0.7382813-1.720595-0.7400868-3.619053-1.2176253-5.661636-1.4941406-1.497637-0.2027415-3.106347-0.2865388-4.69654-0.2714844-0.098229-7.739e-4 -0.197211-0.0020161-0.296954-0.0019531z" style="opacity:.2"/>
 <path d="m16.154702 2c-1.468127 0.00116-2.941423 0.086619-4.321441 0.2734375-2.0425836 0.2765152-3.941041 0.7540557-5.661637 1.4941406-1.9668197 0.8132673-3.3850305 1.9693468-3.8701524 3.2109375-0.2775266 0.7278846-0.2049259 0.7332803-0.2227144 0.8496094-0.0177887 0.1163291-0.0248065 0.182239-0.0312582 0.2441406-0.0716477 0.5425828-0.0445456 1.0776637-0.0312582 1.5917969 0.9621711 5.1723475 3.0961726 11.187392 5.9800789 14.792968 0.864279 1.040804 1.5278953 1.7313 2.6921103 2.644531 1.141785 0.895643 2.265823 1.586304 3.670882 2.263672 0.151896 0.07323 0.290558 0.139053 0.412217 0.195313 0.06083 0.02813 0.113625 0.05244 0.185595 0.08398 0.03599 0.01577 0.0721 0.03158 0.154338 0.06445 0.04112 0.01643 0.08931 0.03671 0.205131 0.07617 0.05791 0.01973 0.128514 0.04385 0.273509 0.08203 0.0725 0.01909 0.306435 0.06831 0.306721 0.06836 2.86e-4 5.2e-5 0.714851 0.06445 0.715031 0.06445 8.87e-4 0 0.729709-0.06294 0.890858-0.09961s0.253364-0.06607 0.32821-0.08984c0.149692-0.04755 0.219928-0.07606 0.279371-0.09961 0.118883-0.0471 0.175248-0.07459 0.230528-0.09961 0.110561-0.05004 0.194046-0.08927 0.287185-0.134766 0.186278-0.091 0.395061-0.195487 0.615395-0.308593 1.494301-0.64857 2.821438-1.796415 4.028397-2.695347 0.316169-0.279431 0.550928-0.520637 0.900626-0.876953l0.0059-0.0059c4.198372-4.295653 6.046606-9.899773 6.78693-15.925782 0.130619-1.038128-0.138651-2.14221-0.285272-2.6854609-0.421871-1.3054118-1.355103-1.8533068-2.377572-2.4726562-0.459377-0.2580905-0.953071-0.5062229-1.492578-0.7382813-1.720595-0.7400868-3.619053-1.2176253-5.661636-1.4941406-1.497637-0.2027415-3.106347-0.2865388-4.69654-0.2714844-0.098229-7.739e-4 -0.197211-0.0020161-0.296954-0.0019531z" style="fill:#cccccc"/>
 <path d="m16.167386 7.0000155c-1.308048 0.00103-2.630461 0.080405-3.7863 0.2369165-1.749391 0.2368862-3.3234327 0.6473228-4.6174289 1.2040586-0.7315602 0.314751-1.6642656 0.8389144-1.7109911 0.9615261-0.015639 0.041028-0.039338 0.389251-0.052666 0.7738573 0.098897 0.805221 0.2172755 1.590072 0.3572956 2.354591 0.065916 0.473415 0.2583048 1.427367 0.4468777 2.168363 0.2656171 1.043758 0.4378745 1.406165 0.8738247 1.838569 0.2643788 0.262229 0.4656302 0.401729 0.8633443 0.598398 0.5750521 0.284361 1.2499263 0.471172 2.4725677 0.684425 0.755357 0.131753 1.472051 0.303221 2.069166 0.49511 3.790275 1.218062 7.126766 3.958413 7.292186 5.989228 0.01124 0.13794 0.02708 0.271985 0.03522 0.29791 0.02171 0.06918 0.259956-0.141419 0.914046-0.808062 3.405145-3.484956 4.994599-8.074965 5.675474-13.618532-0.013323-0.3846063-0.037032-0.7328269-0.05267-0.7738573-0.046725-0.1226117-0.979429-0.6467751-1.710994-0.9615261-1.293992-0.5567358-2.868032-0.9671724-4.617423-1.2040586-1.25418-0.1698282-2.704365-0.2487213-4.11964-0.2353193-0.110481-0.0011-0.221094-0.00166-0.331891-0.00159zm-6.367299 12.112802c-0.2317543-0.0018-0.4112721 0.01101-0.5111586 0.04034-0.086386 0.02536-0.2107343 0.100064-0.2775766 0.166755-0.1846355 0.184217-0.1557857 0.347071 0.1524194 0.860607 0.5633537 0.938663 1.2559688 1.919475 1.9225798 2.722459 0.410651 0.494654 1.635862 1.702582 2.081973 2.052611 0.988987 0.775987 1.673501 1.196929 2.938187 1.806784 0.271033 0.130697 0.502227 0.237638 0.51374 0.237638 0.05677 0 1.47693-0.729224 1.835375-0.942415 0.627716-0.373343 1.10943-0.702851 1.233341-0.843659 0.06165-0.07006 0.15248-0.215115 0.201831-0.322379 0.175348-0.381126 0.101435-0.890313-0.204154-1.405894-1.05583-1.781363-4.425777-3.561233-7.890242-4.167351-0.723787-0.126628-1.486455-0.201528-1.996315-0.205494z" style="opacity:.2"/>
 <path d="m16.154297 2c-1.468127 0.00116-2.940295 0.086619-4.320313 0.2734375-2.0425832 0.2765152-3.941513 0.7540557-5.662109 1.4941406-1.9668197 0.8132673-3.3859719 1.9693468-3.8710938 3.2109375-0.2775266 0.7278846-0.2048677 0.7332803-0.2226562 0.8496094-0.0177887 0.1163291-0.0247983 0.182239-0.03125 0.2441406-0.069777 0.5284165-0.0448183 1.0490152-0.03125 1.5507813 0.0059209-0.1829419 0.006791-0.3655559 0.03125-0.5507813 0.0064517-0.0619016 0.0134613-0.1278115 0.03125-0.2441406 0.0177885-0.1163291-0.0548704-0.1217248 0.2226562-0.8496094 0.4851219-1.2415907 1.9042741-2.3976702 3.8710938-3.2109375 1.720596-0.7400849 3.6195258-1.2176254 5.662109-1.4941406 1.380018-0.1868185 2.852186-0.2722775 4.320313-0.2734375 0.099743-6.3e-5 0.198646 0.0011792 0.296875 0.0019531 1.590193-0.0150544 3.199629 0.0687429 4.697266 0.2714844 2.042583 0.2765153 3.941514 0.7540538 5.662109 1.4941406 0.539507 0.2320584 1.03281 0.4801908 1.492187 0.7382813 1.022469 0.6193494 1.955083 1.1672444 2.376954 2.4726562 0.095326 0.3531966 0.233652 0.9503986 0.289062 1.6054688 0.107629-1.01441-0.1462-2.0761436-0.289062-2.6054688-0.421871-1.3054118-1.354485-1.8533068-2.376954-2.4726562-0.459377-0.2580905-0.95268-0.5062229-1.492187-0.7382813-1.720595-0.7400868-3.619526-1.2176253-5.662109-1.4941406-1.497637-0.2027415-3.107073-0.2865388-4.697266-0.2714844-0.098229-7.739e-4 -0.197132-0.0020161-0.296875-0.0019531z" style="fill:#ffffff;opacity:.2"/>
 <path d="m16.167386 6.0000025c-1.308048 0.00103-2.630461 0.080405-3.7863 0.2369165-1.749391 0.2368862-3.3234327 0.6473228-4.6174289 1.2040586-0.7315602 0.314751-1.6642656 0.8389144-1.7109911 0.9615261-0.015639 0.041028-0.039338 0.389251-0.052666 0.7738572 0.098897 0.8052206 0.2172755 1.5900721 0.3572956 2.3545911 0.065916 0.473415 0.2583048 1.427367 0.4468777 2.168363 0.2656171 1.043758 0.4378745 1.406165 0.8738247 1.838569 0.2643788 0.262229 0.4656302 0.401729 0.8633443 0.598398 0.5750521 0.284361 1.2499263 0.471172 2.4725677 0.684425 0.755357 0.131753 1.472051 0.303221 2.069166 0.49511 3.790275 1.218062 7.126766 3.958413 7.292186 5.989228 0.01124 0.13794 0.02708 0.271985 0.03522 0.29791 0.02171 0.06918 0.259956-0.141419 0.914046-0.808062 3.405145-3.484956 4.994599-8.074965 5.675474-13.618532-0.013323-0.3846062-0.037032-0.7328268-0.05267-0.7738572-0.046725-0.1226117-0.979429-0.6467751-1.710994-0.9615261-1.293992-0.5567358-2.868032-0.9671724-4.617423-1.2040586-1.25418-0.1698282-2.704365-0.2487213-4.11964-0.2353193-0.110481-0.0011-0.221094-0.00166-0.331891-0.00159zm-6.367299 12.112802c-0.2317543-0.0018-0.4112721 0.01101-0.5111586 0.04034-0.086386 0.02536-0.2107343 0.100064-0.2775766 0.166755-0.1846355 0.184217-0.1557857 0.347071 0.1524194 0.860607 0.5633537 0.938663 1.2559688 1.919475 1.9225798 2.722459 0.410651 0.494654 1.635862 1.702582 2.081973 2.052611 0.988987 0.775987 1.673501 1.196929 2.938187 1.806784 0.271033 0.130697 0.502227 0.237638 0.51374 0.237638 0.05677 0 1.47693-0.729224 1.835375-0.942415 0.627716-0.373343 1.10943-0.702851 1.233341-0.843659 0.06165-0.07006 0.15248-0.215115 0.201831-0.322379 0.175348-0.381126 0.101435-0.890313-0.204154-1.405894-1.05583-1.781363-4.425777-3.561233-7.890242-4.167351-0.723787-0.126628-1.486455-0.201528-1.996315-0.205494z" style="fill:#0087db"/>
 <circle cx="6" cy="8" r="5" style="opacity:.2"/>
 <circle cx="6" cy="7" r="5" style="fill:#e6e6e6"/>
 <circle cx="6" cy="8" r="3" style="opacity:.2"/>
 <circle cx="6" cy="7" r="3" style="fill:#4f4f4f"/>
 <path d="M 6 2 A 5 5 0 0 0 1 7 A 5 5 0 0 0 1.0273438 7.484375 A 5 5 0 0 1 6 3 A 5 5 0 0 1 10.972656 7.515625 A 5 5 0 0 0 11 7 A 5 5 0 0 0 6 2 z" style="fill:#ffffff;opacity:.2"/>
</svg>

<svg xmlns="http://www.w3.org/2000/svg" width="32" height="32" version="1">
 <path style="opacity:0.2" d="M 16.154702,3.000013 C 14.686575,3.001173 13.213279,3.086632 11.833261,3.2734505 9.7906774,3.5499657 7.89222,4.0275062 6.171624,4.7675911 4.2048043,5.5808584 2.7865935,6.7369379 2.3014716,7.9785286 2.023945,8.7064132 2.0965457,8.7118089 2.0787572,8.828138 2.0609685,8.9444671 2.0539507,9.010377 2.047499,9.0722786 c -0.071648,0.5425828 -0.044546,1.0776634 -0.031258,1.5917964 0.9621711,5.172348 3.0961726,11.187393 5.9800789,14.792969 0.864279,1.040804 1.5278953,1.7313 2.6921103,2.644531 1.141785,0.895643 2.265823,1.586304 3.670882,2.263672 0.151896,0.07323 0.290558,0.139053 0.412217,0.195313 0.06083,0.02813 0.113625,0.05244 0.185595,0.08398 0.03599,0.01577 0.0721,0.03158 0.154338,0.06445 0.04112,0.01643 0.08931,0.03671 0.205131,0.07617 0.05791,0.01973 0.128514,0.04385 0.273509,0.08203 0.0725,0.01909 0.306435,0.06831 0.306721,0.06836 2.86e-4,5.2e-5 0.714851,0.06445 0.715031,0.06445 8.87e-4,0 0.729709,-0.06294 0.890858,-0.09961 0.161149,-0.03667 0.253364,-0.06607 0.32821,-0.08984 0.149692,-0.04755 0.219928,-0.07606 0.279371,-0.09961 0.118883,-0.0471 0.175248,-0.07459 0.230528,-0.09961 0.110561,-0.05004 0.194046,-0.08927 0.287185,-0.134766 0.186278,-0.091 0.395061,-0.195487 0.615395,-0.308593 1.494301,-0.64857 2.821438,-1.796415 4.028397,-2.695347 0.316169,-0.279431 0.550928,-0.520637 0.900626,-0.876953 l 0.0059,-0.0059 C 28.376696,22.294118 30.22493,16.689998 30.965254,10.66399 31.095873,9.6258615 30.826603,8.5217795 30.679982,7.9785286 30.258111,6.6731168 29.324879,6.1252218 28.30241,5.5058724 27.843033,5.2477819 27.349339,4.9996495 26.809832,4.7675911 25.089237,4.0275043 23.190779,3.5499658 21.148196,3.2734505 19.650559,3.070709 18.041849,2.9869117 16.451656,3.0019661 16.353427,3.0011922 16.254445,2.99995 16.154702,3.000013 Z"/>
 <path style="fill:#cccccc" d="M 16.154702,2 C 14.686575,2.00116 13.213279,2.086619 11.833261,2.2734375 9.7906774,2.5499527 7.89222,3.0274932 6.171624,3.7675781 4.2048043,4.5808454 2.7865935,5.7369249 2.3014716,6.9785156 2.023945,7.7064002 2.0965457,7.7117959 2.0787572,7.828125 2.0609685,7.9444541 2.0539507,8.010364 2.047499,8.0722656 1.9758513,8.6148484 2.0029534,9.1499293 2.0162408,9.6640625 2.9784119,14.83641 5.1124134,20.851455 7.9963197,24.457031 c 0.864279,1.040804 1.5278953,1.7313 2.6921103,2.644531 1.141785,0.895643 2.265823,1.586304 3.670882,2.263672 0.151896,0.07323 0.290558,0.139053 0.412217,0.195313 0.06083,0.02813 0.113625,0.05244 0.185595,0.08398 0.03599,0.01577 0.0721,0.03158 0.154338,0.06445 0.04112,0.01643 0.08931,0.03671 0.205131,0.07617 0.05791,0.01973 0.128514,0.04385 0.273509,0.08203 0.0725,0.01909 0.306435,0.06831 0.306721,0.06836 2.86e-4,5.2e-5 0.714851,0.06445 0.715031,0.06445 8.87e-4,0 0.729709,-0.06294 0.890858,-0.09961 0.161149,-0.03667 0.253364,-0.06607 0.32821,-0.08984 0.149692,-0.04755 0.219928,-0.07606 0.279371,-0.09961 0.118883,-0.0471 0.175248,-0.07459 0.230528,-0.09961 0.110561,-0.05004 0.194046,-0.08927 0.287185,-0.134766 0.186278,-0.091 0.395061,-0.195487 0.615395,-0.308593 1.494301,-0.64857 2.821438,-1.796415 4.028397,-2.695347 0.316169,-0.279431 0.550928,-0.520637 0.900626,-0.876953 l 0.0059,-0.0059 C 28.376696,21.294105 30.22493,15.689985 30.965254,9.6639765 31.095873,8.6258485 30.826603,7.5217665 30.679982,6.9785156 30.258111,5.6731038 29.324879,5.1252088 28.30241,4.5058594 27.843033,4.2477689 27.349339,3.9996365 26.809832,3.7675781 25.089237,3.0274913 23.190779,2.5499528 21.148196,2.2734375 19.650559,2.070696 18.041849,1.9868987 16.451656,2.0019531 16.353427,2.0011792 16.254445,1.999937 16.154702,2 Z"/>
 <path style="opacity:0.2" d="m 16.167386,7.0000155 c -1.308048,0.00103 -2.630461,0.080405 -3.7863,0.2369165 C 10.631695,7.4738182 9.0576533,7.8842548 7.7636571,8.4409906 7.0320969,8.7557416 6.0993915,9.279905 6.052666,9.4025167 6.037027,9.4435447 6.013328,9.7917677 6,10.176374 c 0.098897,0.805221 0.2172755,1.590072 0.3572956,2.354591 0.065916,0.473415 0.2583048,1.427367 0.4468777,2.168363 0.2656171,1.043758 0.4378745,1.406165 0.8738247,1.838569 0.2643788,0.262229 0.4656302,0.401729 0.8633443,0.598398 0.5750521,0.284361 1.2499263,0.471172 2.4725677,0.684425 0.755357,0.131753 1.472051,0.303221 2.069166,0.49511 3.790275,1.218062 7.126766,3.958413 7.292186,5.989228 0.01124,0.13794 0.02708,0.271985 0.03522,0.29791 0.02171,0.06918 0.259956,-0.141419 0.914046,-0.808062 3.405145,-3.484956 4.994599,-8.074965 5.675474,-13.618532 C 26.986679,9.7917677 26.96297,9.4435471 26.947332,9.4025167 26.900607,9.279905 25.967903,8.7557416 25.236338,8.4409906 23.942346,7.8842548 22.368306,7.4738182 20.618915,7.236932 19.364735,7.0671038 17.91455,6.9882107 16.499275,7.0016127 c -0.110481,-0.0011 -0.221094,-0.00166 -0.331891,-0.00159 z M 9.800087,19.112817 c -0.2317543,-0.0018 -0.4112721,0.01101 -0.5111586,0.04034 -0.086386,0.02536 -0.2107343,0.100064 -0.2775766,0.166755 -0.1846355,0.184217 -0.1557857,0.347071 0.1524194,0.860607 0.5633537,0.938663 1.2559688,1.919475 1.9225798,2.722459 0.410651,0.494654 1.635862,1.702582 2.081973,2.052611 0.988987,0.775987 1.673501,1.196929 2.938187,1.806784 0.271033,0.130697 0.502227,0.237638 0.51374,0.237638 0.05677,0 1.47693,-0.729224 1.835375,-0.942415 0.627716,-0.373343 1.10943,-0.702851 1.233341,-0.843659 0.06165,-0.07006 0.15248,-0.215115 0.201831,-0.322379 0.175348,-0.381126 0.101435,-0.890313 -0.204154,-1.405894 -1.05583,-1.781363 -4.425777,-3.561233 -7.890242,-4.167351 -0.723787,-0.126628 -1.486455,-0.201528 -1.996315,-0.205494 z"/>
 <path style="opacity:0.2;fill:#ffffff" d="M 16.154297 2 C 14.68617 2.00116 13.214002 2.086619 11.833984 2.2734375 C 9.7914008 2.5499527 7.892471 3.0274932 6.171875 3.7675781 C 4.2050553 4.5808454 2.7859031 5.7369249 2.3007812 6.9785156 C 2.0232546 7.7064002 2.0959135 7.7117959 2.078125 7.828125 C 2.0603363 7.9444541 2.0533267 8.010364 2.046875 8.0722656 C 1.977098 8.6006821 2.0020567 9.1212808 2.015625 9.6230469 C 2.0215459 9.440105 2.022416 9.257491 2.046875 9.0722656 C 2.0533267 9.010364 2.0603363 8.9444541 2.078125 8.828125 C 2.0959135 8.7117959 2.0232546 8.7064002 2.3007812 7.9785156 C 2.7859031 6.7369249 4.2050553 5.5808454 6.171875 4.7675781 C 7.892471 4.0274932 9.7914008 3.5499527 11.833984 3.2734375 C 13.214002 3.086619 14.68617 3.00116 16.154297 3 C 16.25404 2.999937 16.352943 3.0011792 16.451172 3.0019531 C 18.041365 2.9868987 19.650801 3.070696 21.148438 3.2734375 C 23.191021 3.5499528 25.089952 4.0274913 26.810547 4.7675781 C 27.350054 4.9996365 27.843357 5.2477689 28.302734 5.5058594 C 29.325203 6.1252088 30.257817 6.6731038 30.679688 7.9785156 C 30.775014 8.3317122 30.91334 8.9289142 30.96875 9.5839844 C 31.076379 8.5695744 30.82255 7.5078408 30.679688 6.9785156 C 30.257817 5.6731038 29.325203 5.1252088 28.302734 4.5058594 C 27.843357 4.2477689 27.350054 3.9996365 26.810547 3.7675781 C 25.089952 3.0274913 23.191021 2.5499528 21.148438 2.2734375 C 19.650801 2.070696 18.041365 1.9868987 16.451172 2.0019531 C 16.352943 2.0011792 16.25404 1.999937 16.154297 2 z"/>
 <path style="fill:#0087db" d="m 16.167386,6.0000025 c -1.308048,0.00103 -2.630461,0.080405 -3.7863,0.2369165 C 10.631695,6.4738052 9.0576533,6.8842418 7.7636571,7.4409776 7.0320969,7.7557286 6.0993915,8.279892 6.052666,8.4025037 6.037027,8.4435317 6.013328,8.7917547 6,9.1763609 c 0.098897,0.8052206 0.2172755,1.5900721 0.3572956,2.3545911 0.065916,0.473415 0.2583048,1.427367 0.4468777,2.168363 0.2656171,1.043758 0.4378745,1.406165 0.8738247,1.838569 0.2643788,0.262229 0.4656302,0.401729 0.8633443,0.598398 0.5750521,0.284361 1.2499263,0.471172 2.4725677,0.684425 0.755357,0.131753 1.472051,0.303221 2.069166,0.49511 3.790275,1.218062 7.126766,3.958413 7.292186,5.989228 0.01124,0.13794 0.02708,0.271985 0.03522,0.29791 0.02171,0.06918 0.259956,-0.141419 0.914046,-0.808062 3.405145,-3.484956 4.994599,-8.074965 5.675474,-13.6185321 C 26.986679,8.7917547 26.96297,8.4435341 26.947332,8.4025037 26.900607,8.279892 25.967903,7.7557286 25.236338,7.4409776 23.942346,6.8842418 22.368306,6.4738052 20.618915,6.236919 19.364735,6.0670908 17.91455,5.9881977 16.499275,6.0015997 c -0.110481,-0.0011 -0.221094,-0.00166 -0.331891,-0.00159 z M 9.800087,18.112804 c -0.2317543,-0.0018 -0.4112721,0.01101 -0.5111586,0.04034 -0.086386,0.02536 -0.2107343,0.100064 -0.2775766,0.166755 -0.1846355,0.184217 -0.1557857,0.347071 0.1524194,0.860607 0.5633537,0.938663 1.2559688,1.919475 1.9225798,2.722459 0.410651,0.494654 1.635862,1.702582 2.081973,2.052611 0.988987,0.775987 1.673501,1.196929 2.938187,1.806784 0.271033,0.130697 0.502227,0.237638 0.51374,0.237638 0.05677,0 1.47693,-0.729224 1.835375,-0.942415 0.627716,-0.373343 1.10943,-0.702851 1.233341,-0.843659 0.06165,-0.07006 0.15248,-0.215115 0.201831,-0.322379 0.175348,-0.381126 0.101435,-0.890313 -0.204154,-1.405894 -1.05583,-1.781363 -4.425777,-3.561233 -7.890242,-4.167351 -0.723787,-0.126628 -1.486455,-0.201528 -1.996315,-0.205494 z"/>
 <circle style="opacity:0.2" cx="6" cy="8" r="5"/>
 <circle style="fill:#e6e6e6" cx="6" cy="7" r="5"/>
 <circle style="opacity:0.2" cx="6" cy="8" r="3"/>
 <circle style="fill:#4f4f4f" cx="6" cy="7" r="3"/>
 <path style="opacity:0.2;fill:#ffffff" d="M 6 2 A 5 5 0 0 0 1 7 A 5 5 0 0 0 1.0273438 7.484375 A 5 5 0 0 1 6 3 A 5 5 0 0 1 10.972656 7.515625 A 5 5 0 0 0 11 7 A 5 5 0 0 0 6 2 z"/>
</svg>
